X: 28
T:Shady Grove
R:Reel
M:C|
L:1/8
N:Transcribed by Bruce Thomson
H:From the playing of the Bruce Molsky & Big Hoedown (Rounder CD-0421)
K:D
|:ABABA2B2|d2BAG4|A2A2Bd3|e3ee4|efgfe2d2|
d2BAG2G2|B2B2dB3|A3AA4::efgfe2d2|d2BAG2G2|efgfe2d2|
ea2g aged|efgfe2d2|d2BAG2G2|B2B2dB3|A3AA4:|

